X: 4229
T: Bluemel Soond
R: reel
M: 4/4
K: Gmajor
(GE)|:DEGA (BA)Bc|(de)dB (AG)(GA)|B2 (BG) AG +>+ G2|GAGE EDB,D|
DEGA (BA)Bc|(de)dB (AG)(GA)|B2 (BG) BGGE|D(EGA) (G2 G2):|
|:g2 (gd) edBg|B2 (BG) AGEG|DEGA BABc|dedB AGGA|
[1 g2 (gd) edBg|B2 (BG) AGEG|DEGA BABd|DEGB +>+A2 G2:|
[2DEGA (BA)Bc|(de)dB (AG)(GA)|B2 (BG) AGGE|DEGB +>+A2 G2||

